icons/dossier-fill.svg

<svg viewBox="0 0 24 24" fill="currentColor" xmlns="http://www.w3.org/2000/svg">
    <path d="M17 2V4H20C20.5523 4 21 4.44772 21 5V21C21 21.5523 20.5523 22 20 22H4C3.44772 22 3 21.5523 3 21V5C3 4.44772 3.44772 4 4 4H7V2H17ZM13 11H11V13H9V15H10.999L11 17H13L12.999 15H15V13H13V11ZM15 4H9V6H15V4Z"/>
</svg>

<svg xmlns="http://www.w3.org/2000/svg" viewBox="0 0 24 24">
    <g>
        <path fill="none" d="M0 0H24V24H0z"/>
        <path d="M17 2v2h3c.552 0 1 .448 1 1v16c0 .552-.448 1-1 1H4c-.552 0-1-.448-1-1V5c0-.552.448-1 1-1h3V2h10zm-4 9h-2v2H9v2h1.999L11 17h2l-.001-2H15v-2h-2v-2zm2-7H9v2h6V4z"/>
    </g>
</svg>
